antibot/app/images/dist/protect-yandex-icon.svg

<svg width="30" height="30" viewBox="0 0 30 30" fill="none" xmlns="http://www.w3.org/2000/svg">
<path d="M14.9998 29.318C16.8801 29.318 18.742 28.9477 20.4792 28.2281C22.2163 27.5085 23.7947 26.4539 25.1243 25.1243C26.4539 23.7947 27.5085 22.2163 28.2281 20.4792C28.9477 18.742 29.318 16.8801 29.318 14.9998C29.318 13.1195 28.9477 11.2577 28.2281 9.52049C27.5085 7.78333 26.4539 6.20491 25.1243 4.87534C23.7947 3.54577 22.2163 2.4911 20.4792 1.77155C18.742 1.05199 16.8801 0.681641 14.9998 0.681641C11.2024 0.681641 7.56052 2.19016 4.87534 4.87534C2.19016 7.56052 0.681641 11.2024 0.681641 14.9998C0.681641 18.7972 2.19016 22.4391 4.87534 25.1243C7.56052 27.8095 11.2024 29.318 14.9998 29.318Z" fill="#FC3F1D"/>
<path d="M17.2495 23.9524H20.3654V6.04102H15.8245C11.2563 6.04102 8.85632 8.38647 8.85632 11.8365C8.85632 14.5774 10.1722 16.2206 12.5177 17.891L8.43359 23.9456H11.8222L16.3631 17.1683L14.7813 16.1183C12.8722 14.8228 11.9381 13.8274 11.9381 11.6592C11.9381 9.75693 13.2813 8.46829 15.8381 8.46829H17.2359V23.9456H17.2427L17.2495 23.9524Z" fill="white"/>
</svg>

<svg width="30" height="30" fill="none" xmlns="http://www.w3.org/2000/svg"><path d="M15 29.318A14.318 14.318 0 1 0 15 .682a14.318 14.318 0 0 0 0 28.636Z" fill="#FC3F1D"/><path d="M17.25 23.952h3.115V6.041h-4.54c-4.569 0-6.969 2.345-6.969 5.795 0 2.741 1.316 4.385 3.662 6.055l-4.084 6.055h3.388l4.541-6.778-1.582-1.05c-1.909-1.295-2.843-2.29-2.843-4.459 0-1.902 1.343-3.19 3.9-3.19h1.398v15.477h.007l.007.006Z" fill="#fff"/></svg>
